frontend/src/assets/customize.svg

<svg width="24" height="21" viewBox="0 0 24 21" fill="none" xmlns="http://www.w3.org/2000/svg">
<g clip-path="url(#clip0_593_929)">
<path d="M0 2.625C0 1.17715 1.19583 0 2.66667 0H9.33333V5.25C9.33333 5.97598 9.92917 6.5625 10.6667 6.5625H16V11.7182L12.3833 15.2783C11.9542 15.7008 11.6542 16.2258 11.5083 16.8041L10.7292 19.8762C10.6333 20.2535 10.6542 20.6473 10.7833 21.0041L2.66667 21C1.19583 21 0 19.8229 0 18.375V2.625ZM16 5.25H10.6667V0L16 5.25ZM22.9083 9.66738L23.5083 10.258C24.1583 10.8979 24.1583 11.9355 23.5083 12.5795L22.2833 13.7854L19.325 10.8732L20.55 9.66738C21.2 9.02754 22.2542 9.02754 22.9083 9.66738ZM12.9958 17.1035L18.3792 11.8043L21.3375 14.7164L15.9542 20.0115C15.7833 20.1797 15.5708 20.2986 15.3333 20.3561L12.8292 20.9713C12.6 21.0287 12.3625 20.9631 12.1958 20.799C12.0292 20.635 11.9625 20.4012 12.0208 20.1756L12.6458 17.7105C12.7042 17.4809 12.825 17.2676 12.9958 17.0994V17.1035Z" fill="#767676"/>
</g>
<defs>
<clipPath id="clip0_593_929">
<rect width="24" height="21" fill="white"/>
</clipPath>
</defs>
</svg>

<svg xmlns="http://www.w3.org/2000/svg" fill="none" viewBox="0 0 24 21">
  <g clip-path="url(#a)">
    <path fill="#767676" d="M0 2.6C0 1.2 1.2 0 2.7 0h6.6v5.3q.1 1.2 1.4 1.3H16v5.1l-3.6 3.6q-.6.7-.9 1.5l-.8 3V21h-8A2.6 2.6 0 0 1 0 18.4zm16 2.7h-5.3V0zm7 4.4.5.6q1 1 0 2.3l-1.2 1.2-3-3 1.3-1.1c.6-.7 1.7-.7 2.3 0M13 17l5.4-5.3 3 3L16 20l-.7.4-2.5.6-.6-.2-.2-.6.6-2.5z"/>
  </g>
  <defs>
    <clipPath id="a">
      <path fill="#fff" d="M0 0h24v21H0z"/>
    </clipPath>
  </defs>
</svg>
